icons/unlock-16.svg

<svg width="16" height="16" viewBox="0 0 16 16" xmlns="http://www.w3.org/2000/svg">
  <path fill-rule="evenodd" clip-rule="evenodd" d="M5.5 4C5.49991 3.4592 5.67518 2.93295 5.99953 2.5002C6.32387 2.06746 6.7798 1.75155 7.2989 1.59989C7.818 1.44823 8.37229 1.46898 8.87859 1.65904C9.3849 1.8491 9.81593 2.19821 10.107 2.654C10.2141 2.82162 10.3835 2.93981 10.5778 2.98256C10.7721 3.02532 10.9754 2.98915 11.143 2.882C11.3106 2.77485 11.4288 2.60551 11.4716 2.41122C11.5143 2.21693 11.4781 2.01362 11.371 1.846C10.9052 1.1168 10.2156 0.558296 9.40547 0.254271C8.59538 -0.0497532 7.70855 -0.0829012 6.87802 0.1598C6.04749 0.402502 5.31806 0.907966 4.79915 1.60036C4.28024 2.29275 3.99983 3.13474 4 4V6H3.499C3.10135 6.00027 2.72007 6.15842 2.43899 6.4397C2.1579 6.72097 2 7.10235 2 7.5V13.5C2 13.8978 2.15804 14.2794 2.43934 14.5607C2.72064 14.842 3.10218 15 3.5 15H12.5C12.8978 15 13.2794 14.842 13.5607 14.5607C13.842 14.2794 14 13.8978 14 13.5V7.5C14 7.10218 13.842 6.72065 13.5607 6.43934C13.2794 6.15804 12.8978 6 12.5 6H5.5V4ZM4.75 7.5H3.5V13.5H12.5V7.5H4.75Z"/>
</svg>

<svg xmlns="http://www.w3.org/2000/svg" width="16" height="16" viewBox="0 0 16 16"><path fill-rule="evenodd" d="M5.5 4a2.5 2.5 0 014.607-1.346.75.75 0 101.264-.808A4 4 0 004 4v2h-.501A1.5 1.5 0 002 7.5v6A1.5 1.5 0 003.5 15h9a1.5 1.5 0 001.5-1.5v-6A1.5 1.5 0 0012.5 6h-7V4zm-.75 3.5H3.5v6h9v-6H4.75z"/></svg>
